packages/icons/svg/24/BodyEdit.svg

<svg width="24" height="24" viewBox="0 0 24 24" fill="none" xmlns="http://www.w3.org/2000/svg">
<path fill-rule="evenodd" clip-rule="evenodd" d="M15 6C15.5523 6 16 5.55228 16 5C16 4.44772 15.5523 4 15 4C14.4477 4 14 4.44772 14 5C14 5.55228 14.4477 6 15 6ZM15 8C16.6569 8 18 6.65685 18 5C18 3.34315 16.6569 2 15 2C13.3431 2 12 3.34315 12 5C12 6.65685 13.3431 8 15 8Z" fill="#858585"/>
<path fill-rule="evenodd" clip-rule="evenodd" d="M8 10C8 9.44772 8.44772 9 9 9H21C21.5523 9 22 9.44772 22 10C22 10.5523 21.5523 11 21 11H18V15.8074L19.9285 20.6286C20.1336 21.1414 19.8842 21.7234 19.3714 21.9285C18.8586 22.1336 18.2766 21.8842 18.0715 21.3714L16.323 17H13.677L11.9285 21.3714C11.7234 21.8842 11.1414 22.1336 10.6286 21.9285C10.1158 21.7234 9.86641 21.1414 10.0715 20.6286L12 15.8074V11H9C8.44772 11 8 10.5523 8 10ZM14 11V15H16V11H14Z" fill="#858585"/>
<path fill-rule="evenodd" clip-rule="evenodd" d="M4.29289 2.29289C4.68342 1.90237 5.31658 1.90237 5.70711 2.29289L7.70711 4.29289C8.09763 4.68342 8.09763 5.31658 7.70711 5.70711C7.31658 6.09763 6.68342 6.09763 6.29289 5.70711L6 5.41421V18.5858L6.29289 18.2929C6.68342 17.9024 7.31658 17.9024 7.70711 18.2929C8.09763 18.6834 8.09763 19.3166 7.70711 19.7071L5.70711 21.7071C5.31658 22.0976 4.68342 22.0976 4.29289 21.7071L2.29289 19.7071C1.90237 19.3166 1.90237 18.6834 2.29289 18.2929C2.68342 17.9024 3.31658 17.9024 3.70711 18.2929L4 18.5858V5.41421L3.70711 5.70711C3.31658 6.09763 2.68342 6.09763 2.29289 5.70711C1.90237 5.31658 1.90237 4.68342 2.29289 4.29289L4.29289 2.29289Z" fill="#858585"/>
</svg>

<svg width="24" height="24" fill="none" xmlns="http://www.w3.org/2000/svg" viewBox="0 0 24 24"><path fill-rule="evenodd" clip-rule="evenodd" d="M15 6a1 1 0 100-2 1 1 0 000 2zm0 2a3 3 0 100-6 3 3 0 000 6zM8 10a1 1 0 011-1h12a1 1 0 110 2h-3v4.807l1.928 4.822a1 1 0 01-1.857.742L16.323 17h-2.646l-1.748 4.371a1 1 0 01-1.857-.742L12 15.807V11H9a1 1 0 01-1-1zm6 1v4h2v-4h-2z" fill="currentColor"></path><path fill-rule="evenodd" clip-rule="evenodd" d="M4.293 2.293a1 1 0 011.414 0l2 2a1 1 0 01-1.414 1.414L6 5.414v13.172l.293-.293a1 1 0 011.414 1.414l-2 2a1 1 0 01-1.414 0l-2-2a1 1 0 111.414-1.414l.293.293V5.414l-.293.293a1 1 0 01-1.414-1.414l2-2z" fill="currentColor"></path></svg>
